src/actions/symbolic/tool-brush-symbolic.svg

<svg width="16" height="16" version="1.1" xmlns="http://www.w3.org/2000/svg">
 <path d="m6 6c-1.108 0-2 0.892-2 2v1h9v-1c0-1.108-0.892-2-2-2h-5zm0 1h5c0.554 0 1 0.446 1 1h-7c0-0.554 0.446-1 1-1z" fill="#363636" fill-rule="evenodd" stop-color="#000000" stroke-linecap="round" stroke-linejoin="round" stroke-width="2"/>
 <path d="m8 1c-0.554 0-1 0.446-1 1v4h1v-4h1v4h1v-4c0-0.554-0.446-1-1-1h-1z" fill="#363636" fill-rule="evenodd" stop-color="#000000" stroke-linecap="round" stroke-linejoin="round" stroke-width="2"/>
 <path d="m4 10v1c0 0.83333-0.20416 1.422-0.39453 1.8027-0.19037 0.38074-0.3125 0.49024-0.3125 0.49024l-1.707 1.707h9.4141c0.71896 0 1.2925-0.53811 1.5371-1 0.24464-0.46189 0.33443-0.92464 0.39453-1.3633 0.1202-0.87728 0.066406-1.6953 0.066406-1.6953l-0.054688-0.94141h-8.9434zm1 1h7s0.17791 3-1 3h-7s1-1 1-3z" color="#000000" fill="#363636"/>
</svg>

<svg xmlns="http://www.w3.org/2000/svg" width="16" height="16">
    <path fill="#050505" fill-opacity=".7" fill-rule="evenodd" d="M6 6c-1.108 0-2 .892-2 2v1h9V8c0-1.108-.892-2-2-2H6zm0 1h5c.554 0 1 .446 1 1H5c0-.554.446-1 1-1zM8 1c-.554 0-1 .446-1 1v4h1V2h1v4h1V2c0-.554-.446-1-1-1H8z"/>
    <path fill="#050505" fill-opacity=".7" d="M4 10v1c0 .833-.204 1.422-.395 1.803-.19.38-.312.49-.312.49L1.586 15H11c.719 0 1.293-.538 1.537-1 .245-.462.335-.925.395-1.363.12-.878.066-1.696.066-1.696L12.943 10H4zm1 1h7s.178 3-1 3H4s1-1 1-3z" color="#000"/>
</svg>
